icons/active-color.svg

<svg
  xmlns="http://www.w3.org/2000/svg"
  viewBox="0 0 500 500"
  width="500"
  height="500"
  fill="#ffffff"
>
  <circle cx="253.1" cy="247.34" r="225.4" />
  <path d="M398.76 80.66c94.55 81 105.57 223.26 24.6 317.82s-223.25 105.57-317.81 24.6" />
  <path d="M250 495C114.91 495 5 385.09 5 250a244.83 244.83 0 0 1 11.91-75.65 19.6 19.6 0 1 1 37.29 12.09 205.5 205.5 0 0 0-10 63.56c0 113.48 92.32 205.8 205.8 205.8S455.8 363.48 455.8 250 363.48 44.2 250 44.2A204.91 204.91 0 0 0 175.72 58a19.6 19.6 0 1 1-14.16-36.55A243.88 243.88 0 0 1 250 5c135.09 0 245 109.91 245 245S385.09 495 250 495z" />
  <polygon points="186.59 117.34 175.7 350.46 190.84 367.19 363.35 244.81 359.95 232.92 186.59 117.34" />
  <circle cx="62.16" cy="127.04" r="20.15" />
  <path d="M191.52 378.53a28.07 28.07 0 0 1-28.07-28.07V130.74a28.06 28.06 0 0 1 44.23-22.93l155.61 109.87a28 28 0 0 1 0 45.84l-155.6 109.86a28 28 0 0 1-16.17 5.15zm0-251.38a3.72 3.72 0 0 0-1.68.43 3.39 3.39 0 0 0-1.91 3.16v219.72a3.55 3.55 0 0 0 5.6 2.91l155.63-109.86a3.56 3.56 0 0 0 0-5.82L193.55 127.83a3.41 3.41 0 0 0-2.01-.68z" />
</svg>

<svg xmlns="http://www.w3.org/2000/svg" viewBox="0 0 500 500">
  <g id="active-color">
    <circle id="body" cx="253.1" cy="247.34" r="225.4" style="fill: #478ecc"/>
    <path id="highlight" d="M398.76,80.66c94.55,81,105.57,223.26,24.6,317.82s-223.25,105.57-317.81,24.6" style="fill: #9ec8ea"/>
    <path id="outline" d="M250,495C114.91,495,5,385.09,5,250a244.83,244.83,0,0,1,11.91-75.65A19.6,19.6,0,1,1,54.2,186.44,205.5,205.5,0,0,0,44.2,250c0,113.48,92.32,205.8,205.8,205.8S455.8,363.48,455.8,250,363.48,44.2,250,44.2A204.91,204.91,0,0,0,175.72,58a19.6,19.6,0,1,1-14.16-36.55A243.88,243.88,0,0,1,250,5C385.09,5,495,114.91,495,250S385.09,495,250,495Z" style="fill: #1c3664"/>
    <polygon id="play-inside" points="186.59 117.34 175.7 350.46 190.84 367.19 363.35 244.81 359.95 232.92 186.59 117.34" style="fill: #9ec8ea"/>
    <circle id="outline-circle" cx="62.16" cy="127.04" r="20.15" style="fill: #1c3664"/>
    <path id="play" d="M191.52,378.53a28.07,28.07,0,0,1-28.07-28.07V130.74a28.06,28.06,0,0,1,44.23-22.93L363.29,217.68a28,28,0,0,1,0,45.84L207.69,373.38A28,28,0,0,1,191.52,378.53Zm0-251.38a3.72,3.72,0,0,0-1.68.43,3.39,3.39,0,0,0-1.91,3.16V350.46a3.55,3.55,0,0,0,5.6,2.91L349.16,243.51a3.56,3.56,0,0,0,0-5.82h0L193.55,127.83A3.41,3.41,0,0,0,191.54,127.15Z" style="fill: #1b3764"/>
  </g>
</svg>
